src/assets/img/icons/lineal/upload.svg

<svg xmlns="http://www.w3.org/2000/svg" viewBox="0 0 385.59 409.6"><path class="lineal-fill" d="M218.78 287.16V110.5h37.09L192.8 12.43l-63.08 98.07h37.09v176.66z"/><path class="lineal-stroke" d="M218.78 299.59h-52a12.43 12.43 0 01-12.43-12.43V122.93h-24.63a12.42 12.42 0 01-10.45-19.15l63.07-98.07a12.43 12.43 0 0120.91 0l62.69 97.46a12.43 12.43 0 01-10.05 19.76h-24.68v164.23a12.43 12.43 0 01-12.43 12.43zm-39.54-24.86h27.11V110.5a12.44 12.44 0 0112.43-12.43h14.32l-40.3-62.66-40.3 62.66h14.31a12.43 12.43 0 0112.43 12.43z"/><path class="lineal-stroke" d="M373.16 409.6H12.43A12.43 12.43 0 010 397.17v-289A12.44 12.44 0 0112.43 95.7h62.89a12.43 12.43 0 110 24.86H24.86v264.18h335.87V120.56h-50.46a12.43 12.43 0 010-24.86h62.89a12.43 12.43 0 0112.43 12.43v289a12.42 12.42 0 01-12.43 12.43z"/></svg>

<svg xmlns="http://www.w3.org/2000/svg" viewBox="0 0 385.59 409.6"><path class="lineal-fill" d="M218.78,287.16V110.5h37.09L192.8,12.43,129.72,110.5h37.09V287.16Z"/><path class="lineal-stroke" d="M218.78,299.59h-52a12.43,12.43,0,0,1-12.43-12.43V122.93H129.72a12.42,12.42,0,0,1-10.45-19.15L182.34,5.71a12.43,12.43,0,0,1,20.91,0l62.69,97.46a12.43,12.43,0,0,1-10.05,19.76H231.21V287.16a12.43,12.43,0,0,1-12.43,12.43Zm-39.54-24.86h27.11V110.5a12.44,12.44,0,0,1,12.43-12.43H233.1L192.8,35.41,152.5,98.07h14.31a12.43,12.43,0,0,1,12.43,12.43Z"/><path class="lineal-stroke" d="M373.16,409.6H12.43A12.43,12.43,0,0,1,0,397.17v-289A12.44,12.44,0,0,1,12.43,95.7H75.32a12.43,12.43,0,1,1,0,24.86H24.86V384.74H360.73V120.56H310.27a12.43,12.43,0,0,1,0-24.86h62.89a12.43,12.43,0,0,1,12.43,12.43v289a12.42,12.42,0,0,1-12.43,12.43Z"/></svg>
